documentation/public/assets/images/checkbox-dos-and-donts-08.svg

<svg width="146" height="18" viewBox="0 0 146 18" fill="none" xmlns="http://www.w3.org/2000/svg">
<rect x="1.35059" y="2.5" width="15" height="15" rx="2.5" fill="white" stroke="#545454"/>
<path d="M34.0312 7.63281C34.0312 8.40299 33.9333 9.10482 33.7373 9.73828C33.5413 10.3672 33.2497 10.9095 32.8623 11.3652C32.4795 11.8164 32.0033 12.165 31.4336 12.4111C30.8639 12.6572 30.2031 12.7803 29.4512 12.7803C28.6764 12.7803 27.9997 12.6572 27.4209 12.4111C26.8467 12.165 26.3682 11.8141 25.9854 11.3584C25.6071 10.9027 25.3223 10.3581 25.1309 9.72461C24.944 9.09115 24.8506 8.38932 24.8506 7.61914C24.8506 6.59831 25.0192 5.7028 25.3564 4.93262C25.6937 4.16243 26.2041 3.56315 26.8877 3.13477C27.5758 2.70638 28.4372 2.49219 29.4717 2.49219C30.4606 2.49219 31.2923 2.7041 31.9668 3.12793C32.6458 3.55176 33.1585 4.14876 33.5049 4.91895C33.8558 5.68457 34.0312 6.58919 34.0312 7.63281ZM26.0742 7.63281C26.0742 8.48047 26.195 9.21419 26.4365 9.83398C26.6781 10.4538 27.0472 10.9323 27.5439 11.2695C28.0452 11.6068 28.681 11.7754 29.4512 11.7754C30.2259 11.7754 30.8594 11.6068 31.3516 11.2695C31.8483 10.9323 32.2152 10.4538 32.4521 9.83398C32.6891 9.21419 32.8076 8.48047 32.8076 7.63281C32.8076 6.3431 32.5365 5.33594 31.9941 4.61133C31.4564 3.88216 30.6156 3.51758 29.4717 3.51758C28.6969 3.51758 28.0589 3.68392 27.5576 4.0166C27.0563 4.34928 26.6826 4.82324 26.4365 5.43848C26.195 6.04915 26.0742 6.7806 26.0742 7.63281Z" fill="black"/>
<path d="M39.6094 5.01465C40.5436 5.01465 41.2887 5.33594 41.8447 5.97852C42.4007 6.62109 42.6787 7.58724 42.6787 8.87695C42.6787 9.72917 42.5511 10.4447 42.2959 11.0234C42.0407 11.6022 41.6807 12.0397 41.2158 12.3359C40.7555 12.6322 40.2109 12.7803 39.582 12.7803C39.1855 12.7803 38.8369 12.7279 38.5361 12.623C38.2354 12.5182 37.9779 12.377 37.7637 12.1992C37.5495 12.0215 37.3717 11.8278 37.2305 11.6182H37.1484C37.1621 11.7959 37.1781 12.0101 37.1963 12.2607C37.2191 12.5114 37.2305 12.7301 37.2305 12.917V15.9932H36.0889V5.15137H37.0254L37.1758 6.25879H37.2305C37.3763 6.03092 37.554 5.82357 37.7637 5.63672C37.9733 5.44531 38.2285 5.29492 38.5293 5.18555C38.8346 5.07161 39.1947 5.01465 39.6094 5.01465ZM39.4111 5.97168C38.8916 5.97168 38.4723 6.07194 38.1533 6.27246C37.8389 6.47298 37.6087 6.77376 37.4629 7.1748C37.3171 7.57129 37.2396 8.07031 37.2305 8.67188V8.89062C37.2305 9.52409 37.2988 10.0596 37.4355 10.4971C37.5768 10.9346 37.807 11.2673 38.126 11.4951C38.4495 11.723 38.8825 11.8369 39.4248 11.8369C39.8896 11.8369 40.277 11.7116 40.5869 11.4609C40.8968 11.2103 41.127 10.8617 41.2773 10.415C41.4323 9.96387 41.5098 9.44661 41.5098 8.86328C41.5098 7.97917 41.3366 7.27734 40.9902 6.75781C40.6484 6.23372 40.1221 5.97168 39.4111 5.97168Z" fill="black"/>
<path d="M47.5459 5.01465C48.1839 5.01465 48.7308 5.15592 49.1865 5.43848C49.6423 5.72103 49.9909 6.11751 50.2324 6.62793C50.474 7.13379 50.5947 7.72624 50.5947 8.40527V9.10938H45.4199C45.4336 9.98893 45.6523 10.6589 46.0762 11.1191C46.5 11.5794 47.097 11.8096 47.8672 11.8096C48.3411 11.8096 48.7604 11.7663 49.125 11.6797C49.4896 11.5931 49.8678 11.4655 50.2598 11.2969V12.2949C49.8815 12.4635 49.5055 12.5866 49.1318 12.6641C48.7627 12.7415 48.3252 12.7803 47.8193 12.7803C47.0993 12.7803 46.4704 12.6344 45.9326 12.3428C45.3994 12.0465 44.9847 11.6136 44.6885 11.0439C44.3923 10.4743 44.2441 9.77702 44.2441 8.95215C44.2441 8.14551 44.3786 7.44824 44.6475 6.86035C44.9209 6.2679 45.3037 5.81217 45.7959 5.49316C46.2926 5.17415 46.876 5.01465 47.5459 5.01465ZM47.5322 5.94434C46.9261 5.94434 46.443 6.14258 46.083 6.53906C45.723 6.93555 45.5088 7.48926 45.4404 8.2002H49.4053C49.4007 7.75358 49.3301 7.36165 49.1934 7.02441C49.0612 6.68262 48.8584 6.41829 48.585 6.23145C48.3115 6.04004 47.9606 5.94434 47.5322 5.94434Z" fill="black"/>
<path d="M56.0703 5.01465C56.959 5.01465 57.6312 5.2334 58.0869 5.6709C58.5426 6.10384 58.7705 6.80111 58.7705 7.7627V12.6436H57.6494V7.83789C57.6494 7.21354 57.5059 6.74642 57.2188 6.43652C56.9362 6.12663 56.501 5.97168 55.9131 5.97168C55.0837 5.97168 54.5003 6.20638 54.1631 6.67578C53.8258 7.14518 53.6572 7.8265 53.6572 8.71973V12.6436H52.5225V5.15137H53.4385L53.6094 6.23145H53.6709C53.8304 5.96712 54.0332 5.74609 54.2793 5.56836C54.5254 5.38607 54.8011 5.24935 55.1064 5.1582C55.4118 5.0625 55.7331 5.01465 56.0703 5.01465Z" fill="black"/>
<path d="M68.293 5.01465C69.1816 5.01465 69.8538 5.2334 70.3096 5.6709C70.7653 6.10384 70.9932 6.80111 70.9932 7.7627V12.6436H69.8721V7.83789C69.8721 7.21354 69.7285 6.74642 69.4414 6.43652C69.1589 6.12663 68.7236 5.97168 68.1357 5.97168C67.3063 5.97168 66.723 6.20638 66.3857 6.67578C66.0485 7.14518 65.8799 7.8265 65.8799 8.71973V12.6436H64.7451V5.15137H65.6611L65.832 6.23145H65.8936C66.0531 5.96712 66.2559 5.74609 66.502 5.56836C66.748 5.38607 67.0238 5.24935 67.3291 5.1582C67.6344 5.0625 67.9557 5.01465 68.293 5.01465Z" fill="black"/>
<path d="M76.2158 5.01465C76.8538 5.01465 77.4007 5.15592 77.8564 5.43848C78.3122 5.72103 78.6608 6.11751 78.9023 6.62793C79.1439 7.13379 79.2646 7.72624 79.2646 8.40527V9.10938H74.0898C74.1035 9.98893 74.3223 10.6589 74.7461 11.1191C75.1699 11.5794 75.7669 11.8096 76.5371 11.8096C77.0111 11.8096 77.4303 11.7663 77.7949 11.6797C78.1595 11.5931 78.5378 11.4655 78.9297 11.2969V12.2949C78.5514 12.4635 78.1755 12.5866 77.8018 12.6641C77.4326 12.7415 76.9951 12.7803 76.4893 12.7803C75.7692 12.7803 75.1403 12.6344 74.6025 12.3428C74.0693 12.0465 73.6546 11.6136 73.3584 11.0439C73.0622 10.4743 72.9141 9.77702 72.9141 8.95215C72.9141 8.14551 73.0485 7.44824 73.3174 6.86035C73.5908 6.2679 73.9736 5.81217 74.4658 5.49316C74.9626 5.17415 75.5459 5.01465 76.2158 5.01465ZM76.2021 5.94434C75.596 5.94434 75.113 6.14258 74.7529 6.53906C74.3929 6.93555 74.1787 7.48926 74.1104 8.2002H78.0752C78.0706 7.75358 78 7.36165 77.8633 7.02441C77.7311 6.68262 77.5283 6.41829 77.2549 6.23145C76.9814 6.04004 76.6305 5.94434 76.2021 5.94434Z" fill="black"/>
<path d="M87.29 12.6299L85.957 8.26855C85.8978 8.08171 85.8408 7.89941 85.7861 7.72168C85.736 7.53939 85.6882 7.36621 85.6426 7.20215C85.6016 7.03353 85.5628 6.87858 85.5264 6.7373C85.4945 6.59147 85.4671 6.46615 85.4443 6.36133H85.3965C85.3783 6.46615 85.3532 6.59147 85.3213 6.7373C85.2894 6.87858 85.2507 7.03353 85.2051 7.20215C85.1641 7.37077 85.1185 7.5485 85.0684 7.73535C85.0182 7.91764 84.9613 8.10221 84.8975 8.28906L83.5029 12.6299H82.2246L80.1602 5.1377H81.3359L82.416 9.27344C82.4889 9.54688 82.5573 9.81803 82.6211 10.0869C82.6895 10.3512 82.7464 10.6019 82.792 10.8389C82.8421 11.0713 82.8786 11.2741 82.9014 11.4473H82.9561C82.9834 11.3333 83.013 11.1966 83.0449 11.0371C83.0814 10.8776 83.1201 10.709 83.1611 10.5312C83.2067 10.349 83.2546 10.1689 83.3047 9.99121C83.3548 9.80892 83.4049 9.63802 83.4551 9.47852L84.8359 5.1377H86.0596L87.3926 9.47168C87.4609 9.69043 87.527 9.91829 87.5908 10.1553C87.6592 10.3923 87.7207 10.6224 87.7754 10.8457C87.8301 11.0645 87.8688 11.2604 87.8916 11.4336H87.9463C87.9645 11.2786 87.9987 11.0872 88.0488 10.8594C88.099 10.6315 88.1559 10.3809 88.2197 10.1074C88.2881 9.83398 88.3587 9.55599 88.4316 9.27344L89.5254 5.1377H90.6807L88.6094 12.6299H87.29Z" fill="black"/>
<path d="M101.782 12.6299L100.449 8.26855C100.39 8.08171 100.333 7.89941 100.278 7.72168C100.228 7.53939 100.18 7.36621 100.135 7.20215C100.094 7.03353 100.055 6.87858 100.019 6.7373C99.9867 6.59147 99.9593 6.46615 99.9365 6.36133H99.8887C99.8704 6.46615 99.8454 6.59147 99.8135 6.7373C99.7816 6.87858 99.7428 7.03353 99.6973 7.20215C99.6562 7.37077 99.6107 7.5485 99.5605 7.73535C99.5104 7.91764 99.4535 8.10221 99.3896 8.28906L97.9951 12.6299H96.7168L94.6523 5.1377H95.8281L96.9082 9.27344C96.9811 9.54688 97.0495 9.81803 97.1133 10.0869C97.1816 10.3512 97.2386 10.6019 97.2842 10.8389C97.3343 11.0713 97.3708 11.2741 97.3936 11.4473H97.4482C97.4756 11.3333 97.5052 11.1966 97.5371 11.0371C97.5736 10.8776 97.6123 10.709 97.6533 10.5312C97.6989 10.349 97.7467 10.1689 97.7969 9.99121C97.847 9.80892 97.8971 9.63802 97.9473 9.47852L99.3281 5.1377H100.552L101.885 9.47168C101.953 9.69043 102.019 9.91829 102.083 10.1553C102.151 10.3923 102.213 10.6224 102.268 10.8457C102.322 11.0645 102.361 11.2604 102.384 11.4336H102.438C102.457 11.2786 102.491 11.0872 102.541 10.8594C102.591 10.6315 102.648 10.3809 102.712 10.1074C102.78 9.83398 102.851 9.55599 102.924 9.27344L104.018 5.1377H105.173L103.102 12.6299H101.782Z" fill="black"/>
<path d="M107.675 5.15137V12.6436H106.54V5.15137H107.675ZM107.121 2.34863C107.308 2.34863 107.467 2.41016 107.6 2.5332C107.736 2.65169 107.805 2.83854 107.805 3.09375C107.805 3.3444 107.736 3.53125 107.6 3.6543C107.467 3.77734 107.308 3.83887 107.121 3.83887C106.925 3.83887 106.761 3.77734 106.629 3.6543C106.501 3.53125 106.438 3.3444 106.438 3.09375C106.438 2.83854 106.501 2.65169 106.629 2.5332C106.761 2.41016 106.925 2.34863 107.121 2.34863Z" fill="black"/>
<path d="M113.629 5.01465C114.518 5.01465 115.19 5.2334 115.646 5.6709C116.101 6.10384 116.329 6.80111 116.329 7.7627V12.6436H115.208V7.83789C115.208 7.21354 115.064 6.74642 114.777 6.43652C114.495 6.12663 114.06 5.97168 113.472 5.97168C112.642 5.97168 112.059 6.20638 111.722 6.67578C111.384 7.14518 111.216 7.8265 111.216 8.71973V12.6436H110.081V5.15137H110.997L111.168 6.23145H111.229C111.389 5.96712 111.592 5.74609 111.838 5.56836C112.084 5.38607 112.36 5.24935 112.665 5.1582C112.97 5.0625 113.292 5.01465 113.629 5.01465Z" fill="black"/>
<path d="M121.333 12.7803C120.385 12.7803 119.633 12.4567 119.077 11.8096C118.526 11.1624 118.25 10.2008 118.25 8.9248C118.25 7.63509 118.533 6.66211 119.098 6.00586C119.663 5.34505 120.415 5.01465 121.354 5.01465C121.75 5.01465 122.096 5.06706 122.393 5.17188C122.689 5.27669 122.944 5.41797 123.158 5.5957C123.372 5.76888 123.552 5.96712 123.698 6.19043H123.78C123.762 6.04915 123.744 5.85547 123.726 5.60938C123.707 5.36328 123.698 5.16276 123.698 5.00781V2.00684H124.833V12.6436H123.917L123.746 11.5771H123.698C123.557 11.8005 123.377 12.0033 123.158 12.1855C122.944 12.3678 122.687 12.5137 122.386 12.623C122.09 12.7279 121.739 12.7803 121.333 12.7803ZM121.511 11.8369C122.313 11.8369 122.88 11.609 123.213 11.1533C123.546 10.6976 123.712 10.0208 123.712 9.12305V8.91797C123.712 7.96549 123.552 7.23405 123.233 6.72363C122.919 6.21322 122.345 5.95801 121.511 5.95801C120.813 5.95801 120.292 6.22689 119.945 6.76465C119.599 7.29785 119.426 8.02702 119.426 8.95215C119.426 9.87272 119.597 10.5837 119.938 11.085C120.285 11.5863 120.809 11.8369 121.511 11.8369Z" fill="black"/>
<path d="M133.699 8.88379C133.699 9.49902 133.619 10.0482 133.46 10.5312C133.3 11.0143 133.07 11.4222 132.77 11.7549C132.469 12.0876 132.104 12.3428 131.676 12.5205C131.252 12.6937 130.771 12.7803 130.233 12.7803C129.732 12.7803 129.272 12.6937 128.853 12.5205C128.438 12.3428 128.078 12.0876 127.772 11.7549C127.472 11.4222 127.237 11.0143 127.068 10.5312C126.904 10.0482 126.822 9.49902 126.822 8.88379C126.822 8.06348 126.961 7.36621 127.239 6.79199C127.517 6.21322 127.914 5.77344 128.429 5.47266C128.948 5.16732 129.566 5.01465 130.281 5.01465C130.965 5.01465 131.562 5.16732 132.072 5.47266C132.587 5.77799 132.986 6.22005 133.269 6.79883C133.556 7.37305 133.699 8.06803 133.699 8.88379ZM127.998 8.88379C127.998 9.48535 128.078 10.0072 128.237 10.4492C128.397 10.8913 128.643 11.2331 128.976 11.4746C129.308 11.7161 129.737 11.8369 130.261 11.8369C130.78 11.8369 131.206 11.7161 131.539 11.4746C131.876 11.2331 132.125 10.8913 132.284 10.4492C132.444 10.0072 132.523 9.48535 132.523 8.88379C132.523 8.28678 132.444 7.77181 132.284 7.33887C132.125 6.90137 131.879 6.56413 131.546 6.32715C131.213 6.09017 130.783 5.97168 130.254 5.97168C129.475 5.97168 128.903 6.22917 128.538 6.74414C128.178 7.25911 127.998 7.97233 127.998 8.88379Z" fill="black"/>
<path d="M141.759 12.6299L140.426 8.26855C140.367 8.08171 140.31 7.89941 140.255 7.72168C140.205 7.53939 140.157 7.36621 140.111 7.20215C140.07 7.03353 140.032 6.87858 139.995 6.7373C139.963 6.59147 139.936 6.46615 139.913 6.36133H139.865C139.847 6.46615 139.822 6.59147 139.79 6.7373C139.758 6.87858 139.719 7.03353 139.674 7.20215C139.633 7.37077 139.587 7.5485 139.537 7.73535C139.487 7.91764 139.43 8.10221 139.366 8.28906L137.972 12.6299H136.693L134.629 5.1377H135.805L136.885 9.27344C136.958 9.54688 137.026 9.81803 137.09 10.0869C137.158 10.3512 137.215 10.6019 137.261 10.8389C137.311 11.0713 137.347 11.2741 137.37 11.4473H137.425C137.452 11.3333 137.482 11.1966 137.514 11.0371C137.55 10.8776 137.589 10.709 137.63 10.5312C137.675 10.349 137.723 10.1689 137.773 9.99121C137.824 9.80892 137.874 9.63802 137.924 9.47852L139.305 5.1377H140.528L141.861 9.47168C141.93 9.69043 141.996 9.91829 142.06 10.1553C142.128 10.3923 142.189 10.6224 142.244 10.8457C142.299 11.0645 142.338 11.2604 142.36 11.4336H142.415C142.433 11.2786 142.467 11.0872 142.518 10.8594C142.568 10.6315 142.625 10.3809 142.688 10.1074C142.757 9.83398 142.827 9.55599 142.9 9.27344L143.994 5.1377H145.149L143.078 12.6299H141.759Z" fill="black"/>
</svg>

<svg width="146" height="18" fill="none" xmlns="http://www.w3.org/2000/svg"><rect x="1.35" y="2.5" width="15" height="15" rx="2.5" fill="#fff" stroke="#545454"/><path d="M34.03 7.63c0 .77-.1 1.47-.3 2.1a4.45 4.45 0 0 1-.87 1.64c-.38.45-.86.8-1.43 1.04a4.9 4.9 0 0 1-1.98.37 5.1 5.1 0 0 1-2.03-.37A3.8 3.8 0 0 1 26 11.36c-.38-.46-.67-1-.86-1.64a7.42 7.42 0 0 1-.28-2.1c0-1.02.17-1.92.5-2.69.34-.77.85-1.37 1.54-1.8a4.8 4.8 0 0 1 2.58-.64c1 0 1.82.21 2.5.64a3.9 3.9 0 0 1 1.53 1.79c.36.76.53 1.67.53 2.71Zm-7.96 0c0 .85.13 1.58.37 2.2a3 3 0 0 0 1.1 1.44c.5.34 1.14.5 1.91.5.78 0 1.4-.16 1.9-.5.5-.34.87-.82 1.1-1.44.24-.62.36-1.35.36-2.2 0-1.29-.27-2.3-.82-3.02-.53-.73-1.37-1.1-2.52-1.1a3.4 3.4 0 0 0-1.91.5c-.5.34-.88.81-1.12 1.43a5.96 5.96 0 0 0-.37 2.2ZM39.6 5.01c.94 0 1.69.33 2.24.97.56.64.84 1.6.84 2.9a5.4 5.4 0 0 1-.38 2.14 2.88 2.88 0 0 1-1.08 1.32c-.46.3-1 .44-1.64.44a3 3 0 0 1-1.04-.16 2.47 2.47 0 0 1-1.3-1h-.1a147.34 147.34 0 0 1 .09 1.3v3.07h-1.14V5.15h.94l.15 1.1h.05c.15-.22.32-.43.53-.61.21-.2.47-.35.77-.45.3-.12.66-.18 1.08-.18Zm-.19.96c-.52 0-.94.1-1.26.3-.31.2-.54.5-.69.9-.14.4-.22.9-.23 1.5v.22c0 .63.07 1.17.2 1.6.15.44.38.78.7 1 .32.23.75.35 1.3.35.46 0 .85-.13 1.16-.38.3-.25.54-.6.69-1.05.15-.45.23-.96.23-1.55 0-.88-.17-1.58-.52-2.1-.34-.53-.87-.79-1.58-.79Zm8.14-.96c.63 0 1.18.15 1.64.43.45.28.8.68 1.04 1.19.24.5.36 1.1.36 1.78v.7h-5.17c.01.88.23 1.55.66 2 .42.47 1.02.7 1.79.7a5.47 5.47 0 0 0 2.39-.51v1a5.53 5.53 0 0 1-2.44.48 3.9 3.9 0 0 1-1.89-.44c-.53-.3-.95-.73-1.24-1.3a4.5 4.5 0 0 1-.45-2.09 5 5 0 0 1 .4-2.09c.28-.6.66-1.05 1.16-1.37.5-.32 1.08-.48 1.75-.48Zm-.02.93c-.6 0-1.09.2-1.45.6-.36.4-.57.95-.64 1.66h3.97c0-.45-.08-.84-.22-1.18-.13-.34-.33-.6-.6-.79a1.8 1.8 0 0 0-1.06-.29Zm8.54-.93c.89 0 1.56.22 2.02.66.45.43.68 1.13.68 2.1v4.87h-1.12v-4.8c0-.63-.14-1.1-.43-1.4-.28-.31-.72-.47-1.3-.47-.84 0-1.42.24-1.76.7-.33.48-.5 1.16-.5 2.05v3.92h-1.14V5.15h.92l.17 1.08h.06c.16-.26.36-.48.6-.66a3.2 3.2 0 0 1 1.8-.55Zm12.23 0c.88 0 1.55.22 2.01.66.46.43.68 1.13.68 2.1v4.87h-1.12v-4.8c0-.63-.14-1.1-.43-1.4-.28-.31-.72-.47-1.3-.47-.83 0-1.42.24-1.75.7a3.5 3.5 0 0 0-.51 2.05v3.92h-1.13V5.15h.91l.17 1.08h.06c.16-.26.37-.48.61-.66a3.2 3.2 0 0 1 1.8-.55Zm7.92 0c.63 0 1.18.15 1.64.43.45.28.8.68 1.04 1.19.24.5.36 1.1.36 1.78v.7H74.1c.01.88.23 1.55.66 2 .42.47 1.02.7 1.79.7a5.47 5.47 0 0 0 2.39-.51v1a5.53 5.53 0 0 1-2.44.48 3.9 3.9 0 0 1-1.89-.44c-.53-.3-.95-.73-1.24-1.3a4.5 4.5 0 0 1-.45-2.09 5 5 0 0 1 .4-2.09c.28-.6.66-1.05 1.16-1.37.5-.32 1.08-.48 1.75-.48Zm-.02.93c-.6 0-1.09.2-1.45.6-.36.4-.57.95-.64 1.66h3.97c0-.45-.08-.84-.22-1.18-.13-.34-.33-.6-.6-.79a1.8 1.8 0 0 0-1.06-.29Zm11.09 6.69-1.33-4.36a69.34 69.34 0 0 1-.32-1.07 35.24 35.24 0 0 0-.2-.84h-.04a9.03 9.03 0 0 1-.2.84 23.54 23.54 0 0 1-.3 1.09l-1.4 4.34h-1.28l-2.06-7.5h1.18l1.08 4.14a30.44 30.44 0 0 1 .48 2.18h.06l.08-.41a310.38 310.38 0 0 1 .26-1.05l.16-.51 1.38-4.34h1.22l1.33 4.33a17.95 17.95 0 0 1 .5 1.96h.06a62.67 62.67 0 0 1 .49-2.16l1.09-4.13h1.15l-2.07 7.49h-1.32Zm14.49 0-1.33-4.36-.17-.55-.14-.52a43.19 43.19 0 0 0-.2-.84h-.05a9.2 9.2 0 0 1-.2.84 23.56 23.56 0 0 1-.3 1.09l-1.4 4.34h-1.27l-2.07-7.5h1.18l1.08 4.14a30.44 30.44 0 0 1 .48 2.18h.06l.09-.41a310.38 310.38 0 0 1 .26-1.05l.15-.51 1.38-4.34h1.22l1.34 4.33a18.92 18.92 0 0 1 .5 1.96h.05l.1-.57a55.88 55.88 0 0 1 .38-1.59l1.1-4.13h1.15l-2.07 7.49h-1.32Zm5.89-7.48v7.5h-1.13v-7.5h1.13Zm-.55-2.8c.19 0 .35.06.48.18.14.12.2.3.2.56 0 .25-.06.44-.2.56a.68.68 0 0 1-.48.19.7.7 0 0 1-.5-.19c-.12-.12-.18-.3-.18-.56 0-.25.06-.44.19-.56a.7.7 0 0 1 .5-.18Zm6.51 2.66c.89 0 1.56.22 2.02.66.45.43.68 1.13.68 2.1v4.87h-1.12v-4.8c0-.63-.15-1.1-.43-1.4-.28-.31-.72-.47-1.3-.47-.84 0-1.42.24-1.76.7-.34.48-.5 1.16-.5 2.05v3.92h-1.14V5.15h.92l.17 1.08h.06c.16-.26.36-.48.6-.66a3.2 3.2 0 0 1 1.8-.55Zm7.7 7.77a2.8 2.8 0 0 1-2.25-.97c-.55-.65-.83-1.6-.83-2.89 0-1.28.28-2.26.85-2.91.56-.66 1.32-1 2.25-1 .4 0 .75.06 1.04.16a2.48 2.48 0 0 1 1.3 1.02h.09a11.5 11.5 0 0 1-.08-1.18V2h1.13v10.63h-.91l-.17-1.06h-.05a2.59 2.59 0 0 1-1.31 1.04c-.3.1-.65.16-1.06.16Zm.18-.94c.8 0 1.37-.23 1.7-.69.34-.45.5-1.13.5-2.03v-.2c0-.95-.16-1.69-.48-2.2-.31-.5-.89-.76-1.72-.76-.7 0-1.22.27-1.57.8a3.99 3.99 0 0 0-.51 2.2c0 .91.17 1.62.5 2.13.35.5.88.75 1.58.75Zm12.19-2.96c0 .62-.08 1.17-.24 1.65-.16.48-.39.9-.69 1.22-.3.34-.67.6-1.1.77-.42.17-.9.26-1.44.26a3.12 3.12 0 0 1-3.17-2.25 5.11 5.11 0 0 1-.24-1.65c0-.82.14-1.51.42-2.09.28-.58.67-1.02 1.19-1.32.52-.3 1.14-.46 1.85-.46.69 0 1.28.16 1.8.46.5.3.9.75 1.19 1.33.29.57.43 1.27.43 2.08Zm-5.7 0c0 .6.08 1.13.24 1.57.16.44.4.78.74 1.02.33.25.76.37 1.28.37s.95-.12 1.28-.37a2 2 0 0 0 .74-1.02c.16-.44.24-.96.24-1.57 0-.6-.08-1.1-.24-1.54-.16-.44-.4-.78-.73-1.01a2.18 2.18 0 0 0-1.3-.36c-.78 0-1.35.26-1.71.77a3.69 3.69 0 0 0-.54 2.14Zm13.76 3.75-1.33-4.36a99.57 99.57 0 0 1-.32-1.07l-.12-.46-.08-.38h-.04a8.53 8.53 0 0 1-.2.84 24.15 24.15 0 0 1-.3 1.09l-1.4 4.34h-1.28l-2.06-7.5h1.18l1.07 4.14a30.82 30.82 0 0 1 .49 2.18h.06l.08-.41.12-.5a17.37 17.37 0 0 1 .3-1.06l1.38-4.34h1.22l1.33 4.33a17.06 17.06 0 0 1 .5 1.96h.05l.1-.57.18-.75.21-.84 1.1-4.13h1.15l-2.07 7.49h-1.32Z" fill="#000"/></svg>
